symbols/web/timer_10_select/materialsymbolsrounded/timer_10_select_wght100gradN25_48px.svg

<svg xmlns="http://www.w3.org/2000/svg" height="48" width="48"><path d="M18.3 34.9h8.25q.7 0 1.15-.45.45-.45.45-1.15V14.7q0-.7-.45-1.15-.45-.45-1.15-.45H18.3q-.65 0-1.125.45T16.7 14.7v18.6q0 .7.475 1.15.475.45 1.125.45Zm0 .8q-1.05 0-1.725-.675T15.9 33.3V14.7q0-1.05.675-1.725T18.3 12.3h8.25q1.05 0 1.725.675t.675 1.725v18.6q0 1.05-.675 1.725t-1.725.675Zm-10 0q-.15 0-.275-.1-.125-.1-.125-.35V13.1H4.25q-.25 0-.35-.1-.1-.1-.1-.35 0-.15.1-.25t.35-.1H7.6q.45 0 .775.325t.325.775v21.85q0 .25-.125.35-.125.1-.275.1Zm27.3 0q-.3 0-.45-.15-.15-.15-.15-.4t.15-.4q.15-.15.45-.15h7.5v-5.05h-6.85q-.55 0-.9-.35t-.35-.85V23.5q0-.5.35-.85t.9-.35h7.45q.2 0 .35.175.15.175.15.375 0 .25-.15.4-.15.15-.35.15h-7.6v5.05H43q.5 0 .85.35t.35.85v4.85q0 .5-.35.85t-.85.35Z"/></svg>

<svg xmlns="http://www.w3.org/2000/svg" height="48" width="48"><path d="M18.3 34.9H26.55Q27.25 34.9 27.7 34.45Q28.15 34 28.15 33.3V14.7Q28.15 14 27.7 13.55Q27.25 13.1 26.55 13.1H18.3Q17.65 13.1 17.175 13.55Q16.7 14 16.7 14.7V33.3Q16.7 34 17.175 34.45Q17.65 34.9 18.3 34.9ZM18.3 35.7Q17.25 35.7 16.575 35.025Q15.9 34.35 15.9 33.3V14.7Q15.9 13.65 16.575 12.975Q17.25 12.3 18.3 12.3H26.55Q27.6 12.3 28.275 12.975Q28.95 13.65 28.95 14.7V33.3Q28.95 34.35 28.275 35.025Q27.6 35.7 26.55 35.7ZM8.3 35.7Q8.15 35.7 8.025 35.6Q7.9 35.5 7.9 35.25V13.1H4.25Q4 13.1 3.9 13Q3.8 12.9 3.8 12.65Q3.8 12.5 3.9 12.4Q4 12.3 4.25 12.3H7.6Q8.05 12.3 8.375 12.625Q8.7 12.95 8.7 13.4V35.25Q8.7 35.5 8.575 35.6Q8.45 35.7 8.3 35.7ZM35.6 35.7Q35.3 35.7 35.15 35.55Q35 35.4 35 35.15Q35 34.9 35.15 34.75Q35.3 34.6 35.6 34.6H43.1V29.55H36.25Q35.7 29.55 35.35 29.2Q35 28.85 35 28.35V23.5Q35 23 35.35 22.65Q35.7 22.3 36.25 22.3H43.7Q43.9 22.3 44.05 22.475Q44.2 22.65 44.2 22.85Q44.2 23.1 44.05 23.25Q43.9 23.4 43.7 23.4H36.1V28.45H43Q43.5 28.45 43.85 28.8Q44.2 29.15 44.2 29.65V34.5Q44.2 35 43.85 35.35Q43.5 35.7 43 35.7Z"/></svg>
